src/lib/packages/icons/src/assets/filled/file-list-star.svg

<svg width="24" height="24" viewBox="0 0 24 24" fill="none" xmlns="http://www.w3.org/2000/svg">
<path d="M12.75 6V3.75L17.25 8.25H15C13.42 8.25 12.75 7.58 12.75 6ZM13.0801 19.42L13.9099 20.21L13.8101 20.77C13.8101 20.77 13.76 21 13.53 21C13.3 21 6 21 6 21C4 21 3 20 3 18V6C3 4 4 3 6 3H11.25V6C11.25 8.42 12.58 9.75 15 9.75H18V13.65C18 13.97 17.67 14 17.5 14C16.77 14 16.11 14.4 15.79 15.05L15.29 16.03L14.1201 16.2C13.4001 16.3 12.8101 16.79 12.5901 17.49C12.3701 18.18 12.5601 18.92 13.0801 19.42ZM8.75 12C8.75 12.414 9.086 12.75 9.5 12.75H14C14.414 12.75 14.75 12.414 14.75 12C14.75 11.586 14.414 11.25 14 11.25H9.5C9.086 11.25 8.75 11.586 8.75 12ZM7.75 16C7.75 15.586 7.414 15.25 7 15.25C6.586 15.25 6.25 15.586 6.25 16C6.25 16.414 6.586 16.75 7 16.75C7.414 16.75 7.75 16.414 7.75 16ZM7.75 12C7.75 11.586 7.414 11.25 7 11.25C6.586 11.25 6.25 11.586 6.25 12C6.25 12.414 6.586 12.75 7 12.75C7.414 12.75 7.75 12.414 7.75 12ZM11.75 16C11.75 15.586 11.414 15.25 11 15.25H9.5C9.086 15.25 8.75 15.586 8.75 16C8.75 16.414 9.086 16.75 9.5 16.75H11C11.414 16.75 11.75 16.414 11.75 16ZM20.8821 18.334C21.1141 18.113 20.986 17.727 20.666 17.682L18.9231 17.434C18.7961 17.416 18.6859 17.338 18.6299 17.225L17.875 15.727C17.722 15.423 17.28 15.423 17.126 15.727L16.3711 17.225C16.3141 17.338 16.2039 17.416 16.0779 17.434L14.335 17.682C14.015 17.727 13.8879 18.113 14.1189 18.334L15.3789 19.536C15.4709 19.624 15.513 19.751 15.491 19.875L15.2029 21.519C15.1439 21.853 15.5021 22.108 15.8081 21.951L17.3191 21.174C17.4321 21.116 17.5679 21.116 17.6809 21.174L19.1931 21.952C19.4991 22.109 19.8561 21.855 19.7971 21.521L19.509 19.875C19.487 19.751 19.5291 19.624 19.6211 19.536L20.8821 18.334Z" fill="currentColor"/>
</svg>

<svg xmlns="http://www.w3.org/2000/svg" width="24" height="24" fill="none"><path fill="currentColor" d="M12.75 6V3.75l4.5 4.5H15c-1.58 0-2.25-.67-2.25-2.25Zm.33 13.42.83.79-.1.56s-.05.23-.28.23H6c-2 0-3-1-3-3V6c0-2 1-3 3-3h5.25v3c0 2.42 1.33 3.75 3.75 3.75h3v3.9c0 .32-.33.35-.5.35-.73 0-1.39.4-1.71 1.05l-.5.98-1.17.17c-.72.1-1.31.59-1.53 1.29-.22.69-.03 1.43.49 1.93ZM8.75 12c0 .414.336.75.75.75H14a.75.75 0 0 0 0-1.5H9.5a.75.75 0 0 0-.75.75Zm-1 4a.75.75 0 1 0-1.5 0 .75.75 0 0 0 1.5 0Zm0-4a.75.75 0 1 0-1.5 0 .75.75 0 0 0 1.5 0Zm4 4a.75.75 0 0 0-.75-.75H9.5a.75.75 0 0 0 0 1.5H11a.75.75 0 0 0 .75-.75Zm9.132 2.334a.38.38 0 0 0-.216-.652l-1.743-.248a.387.387 0 0 1-.293-.209l-.755-1.498a.422.422 0 0 0-.749 0l-.755 1.498a.39.39 0 0 1-.293.209l-1.743.248a.38.38 0 0 0-.216.652l1.26 1.202a.378.378 0 0 1 .112.339l-.288 1.644c-.06.334.3.589.605.432l1.511-.777a.398.398 0 0 1 .362 0l1.512.778c.306.157.663-.097.604-.431l-.288-1.646a.378.378 0 0 1 .112-.339l1.261-1.202Z"/></svg>
